X: 187
T:Judique Jig
R:Jig
C:Trad.
S:Jig Set -- Buddy MacMaster, Gaelic Roots III, Boston 1997
Z:Set: Judique Jig / Up the Bow Jig
Z:Added by elizabeth.scarlett@rogers.com
M:6/8
L:1/8
K:A
c|efe c2d|efe c2e|dcd B2c|d3 dcd|
efe cea|fef dfa|g2b gfg|a3 a2:|
|:b|agf edc|Bcd f2e|cde a2e|cde f2g|
agf edc|Bcd f2a|efe dcB|A3 A2:|
